assets/i18n/b-ru-dk.svg

<?xml version="1.0" encoding="UTF-8"?>
<svg width="293px" height="24px" viewBox="0 0 293 24" version="1.1" xmlns="http://www.w3.org/2000/svg" xmlns:xlink="http://www.w3.org/1999/xlink">
    <!-- Generator: Sketch 51.3 (57544) - http://www.bohemiancoding.com/sketch -->
    <title>SwG-RU Copy-Black</title>
    <desc>Created with Sketch.</desc>
    <defs></defs>
    <g id="SwG-RU-Copy" stroke="none" stroke-width="1" fill="none" fill-rule="evenodd">
        <path d="M1.656,19 L1.656,2.532 L13.57,2.532 L13.57,19 L11.454,19 L11.454,4.556 L3.772,4.556 L3.772,19 L1.656,19 Z M17.64675,9.087 C18.7354221,7.93699425 20.1230749,7.362 21.80975,7.362 C23.4964251,7.362 24.8840779,7.93316096 25.97275,9.0755 C27.0614221,10.217839 27.60575,11.6476581 27.60575,13.365 C27.60575,15.0823419 27.0614221,16.512161 25.97275,17.6545 C24.8840779,18.796839 23.4964251,19.368 21.80975,19.368 C20.1230749,19.368 18.7354221,18.796839 17.64675,17.6545 C16.5580779,16.512161 16.01375,15.0823419 16.01375,13.365 C16.01375,11.6476581 16.5580779,10.2216723 17.64675,9.087 Z M19.21075,16.332 C19.9467537,17.0680037 20.8130783,17.436 21.80975,17.436 C22.8064216,17.436 23.668913,17.0641704 24.39725,16.3205 C25.125587,15.5768296 25.48975,14.5916728 25.48975,13.365 C25.48975,12.1383272 25.125587,11.1531704 24.39725,10.4095 C23.668913,9.66582961 22.8064216,9.294 21.80975,9.294 C20.8130783,9.294 19.950587,9.66582961 19.22225,10.4095 C18.493913,11.1531704 18.12975,12.1383272 18.12975,13.365 C18.12975,14.5916728 18.4900797,15.5806629 19.21075,16.332 Z M30.6015,22.496 L28.5775,22.496 L28.5775,17.068 L29.9345,17.068 C30.271835,16.7766652 30.5516656,16.2131708 30.774,15.3775 C30.9963344,14.5418292 31.1075,13.5643389 31.1075,12.445 L31.1075,7.73 L41.0895,7.73 L41.0895,17.068 L42.9295,17.068 L42.9295,22.496 L40.9055,22.496 L40.9055,19 L30.6015,19 L30.6015,22.496 Z M33.2235,9.662 L33.2235,12.606 C33.2235,14.400009 32.9168364,15.8873274 32.3035,17.068 L38.9735,17.068 L38.9735,9.662 L33.2235,9.662 Z M45.00525,19 L45.00525,7.73 L54.98725,7.73 L54.98725,19 L52.87125,19 L52.87125,9.662 L47.12125,9.662 L47.12125,19 L45.00525,19 Z M67.689,7.73 L67.689,19 L65.573,19 L65.573,13.158 L65.665,10.95 L65.573,10.95 L59.823,19 L57.707,19 L57.707,7.73 L59.823,7.73 L59.823,13.572 L59.731,15.78 L59.823,15.78 L65.573,7.73 L67.689,7.73 Z M85.68075,19 L70.40875,19 L70.40875,7.73 L72.52475,7.73 L72.52475,17.068 L76.98675,17.068 L76.98675,7.73 L79.10275,7.73 L79.10275,17.068 L83.56475,17.068 L83.56475,7.73 L85.68075,7.73 L85.68075,19 Z M98.3825,7.73 L98.3825,19 L96.2665,19 L96.2665,13.158 L96.3585,10.95 L96.2665,10.95 L90.5165,19 L88.4005,19 L88.4005,7.73 L90.5165,7.73 L90.5165,13.572 L90.4245,15.78 L90.5165,15.78 L96.2665,7.73 L98.3825,7.73 Z M100.36625,9.662 L100.36625,7.73 L109.10625,7.73 L109.10625,9.662 L105.79425,9.662 L105.79425,19 L103.67825,19 L103.67825,9.662 L100.36625,9.662 Z M115.966,19.368 C114.263991,19.368 112.880172,18.8006723 111.8145,17.666 C110.748828,16.5313277 110.216,15.0976753 110.216,13.365 C110.216,11.7243251 110.733495,10.3136726 111.7685,9.133 C112.803505,7.95232743 114.125992,7.362 115.736,7.362 C117.407342,7.362 118.745162,7.90632789 119.7495,8.995 C120.753838,10.0836721 121.256,11.5403242 121.256,13.365 L121.233,13.756 L112.332,13.756 C112.393334,14.8906723 112.77283,15.7876634 113.4705,16.447 C114.16817,17.1063366 114.984662,17.436 115.92,17.436 C117.438008,17.436 118.465331,16.7920064 119.002,15.504 L120.888,16.286 C120.519998,17.1600044 119.914338,17.8921637 119.071,18.4825 C118.227662,19.0728363 117.192673,19.368 115.966,19.368 Z M119.002,12.008 C118.956,11.3639968 118.660836,10.7506696 118.1165,10.168 C117.572164,9.58533042 116.763339,9.294 115.69,9.294 C114.907996,9.294 114.229503,9.53933088 113.6545,10.03 C113.079497,10.5206691 112.684668,11.1799959 112.47,12.008 L119.002,12.008 Z M128.59875,19.368 C126.912075,19.368 125.524422,18.796839 124.43575,17.6545 C123.347078,16.512161 122.80275,15.0823419 122.80275,13.365 C122.80275,11.6476581 123.347078,10.217839 124.43575,9.0755 C125.524422,7.93316096 126.912075,7.362 128.59875,7.362 C129.85609,7.362 130.898746,7.6686636 131.72675,8.282 C132.554754,8.8953364 133.160415,9.66966199 133.54375,10.605 L131.61175,11.41 C131.02908,9.99932628 129.978758,9.294 128.46075,9.294 C127.525412,9.294 126.701254,9.6773295 125.98825,10.444 C125.275246,11.2106705 124.91875,12.1843274 124.91875,13.365 C124.91875,14.5456726 125.275246,15.5193295 125.98825,16.286 C126.701254,17.0526705 127.525412,17.436 128.46075,17.436 C130.040091,17.436 131.128747,16.7306737 131.72675,15.32 L133.61275,16.125 C133.229415,17.0450046 132.612254,17.8154969 131.76125,18.4365 C130.910246,19.0575031 129.85609,19.368 128.59875,19.368 Z M141.1855,19 L135.5965,19 L135.5965,7.73 L137.7125,7.73 L137.7125,11.732 L141.1855,11.732 C141.568835,11.732 141.959831,11.7933327 142.3585,11.916 C142.757169,12.0233339 143.148165,12.2149986 143.5315,12.491 C143.638834,12.5523336 143.753833,12.6443327 143.8765,12.767 L144.0835,12.951 C144.405502,13.2730016 144.666166,13.6793309 144.8655,14.17 C144.926834,14.3386675 144.965167,14.4843327 144.9805,14.607 C144.995833,14.6376668 145.0035,14.6836664 145.0035,14.745 C145.0495,14.9443343 145.0725,15.1513323 145.0725,15.366 L145.0725,15.527 L145.0035,15.987 C145.0035,16.0483336 144.995833,16.0943332 144.9805,16.125 C144.9805,16.1403334 144.976667,16.1671665 144.969,16.2055 C144.961333,16.2438335 144.9575,16.2706666 144.9575,16.286 L144.8655,16.562 C144.742833,16.899335 144.551168,17.236665 144.2905,17.574 L144.0835,17.781 C143.899499,17.9956677 143.638835,18.2103323 143.3015,18.425 L142.9105,18.632 L142.7725,18.678 C142.6805,18.7240002 142.542501,18.7776664 142.3585,18.839 L142.0825,18.908 C142.067167,18.908 142.040334,18.9118333 142.002,18.9195 C141.963666,18.9271667 141.936833,18.931 141.9215,18.931 C141.798833,18.9616668 141.699167,18.977 141.6225,18.977 C141.5305,18.9923334 141.384834,19 141.1855,19 Z M141.1165,17.068 C141.269834,17.068 141.384833,17.0603334 141.4615,17.045 L141.7145,16.976 L141.9675,16.861 C142.028834,16.8303332 142.120833,16.7690005 142.2435,16.677 C142.258833,16.677 142.281833,16.6616668 142.3125,16.631 C142.450501,16.5083327 142.588499,16.3396677 142.7265,16.125 L142.7265,16.102 L142.7495,16.056 C142.764833,16.0406666 142.787833,15.9793339 142.8185,15.872 C142.849167,15.7646661 142.879833,15.6190009 142.9105,15.435 L142.9105,15.297 C142.9105,15.2356664 142.902833,15.1896668 142.8875,15.159 C142.8875,15.0823329 142.856834,14.9673341 142.7955,14.814 C142.7035,14.5686654 142.557834,14.3463343 142.3585,14.147 C142.235833,14.0549995 142.143834,13.9936668 142.0825,13.963 C142.067167,13.9476666 142.0365,13.9285001 141.9905,13.9055 C141.9445,13.8824999 141.913833,13.8633334 141.8985,13.848 C141.837166,13.8173332 141.798833,13.802 141.7835,13.802 C141.722166,13.7713332 141.676167,13.756 141.6455,13.756 C141.507499,13.6946664 141.331168,13.664 141.1165,13.664 L137.7125,13.664 L137.7125,17.068 L141.1165,17.068 Z M156.423,13.25 C157.634339,13.25 158.515997,12.9740028 159.068,12.422 L159.068,7.73 L161.184,7.73 L161.184,19 L159.068,19 L159.068,15.182 L159.114,14.262 L159.068,14.262 C158.239996,14.8753364 157.220339,15.182 156.009,15.182 C154.736327,15.182 153.701337,14.7871706 152.904,13.9975 C152.106663,13.2078294 151.708,12.2073394 151.708,10.996 L151.708,7.73 L153.87,7.73 L153.87,10.996 C153.87,11.6860035 154.099998,12.2341646 154.56,12.6405 C155.020002,13.0468354 155.640996,13.25 156.423,13.25 Z M168.89475,19.368 C167.192741,19.368 165.808922,18.8006723 164.74325,17.666 C163.677578,16.5313277 163.14475,15.0976753 163.14475,13.365 C163.14475,11.7243251 163.662245,10.3136726 164.69725,9.133 C165.732255,7.95232743 167.054742,7.362 168.66475,7.362 C170.336092,7.362 171.673912,7.90632789 172.67825,8.995 C173.682588,10.0836721 174.18475,11.5403242 174.18475,13.365 L174.16175,13.756 L165.26075,13.756 C165.322084,14.8906723 165.70158,15.7876634 166.39925,16.447 C167.09692,17.1063366 167.913412,17.436 168.84875,17.436 C170.366758,17.436 171.394081,16.7920064 171.93075,15.504 L173.81675,16.286 C173.448748,17.1600044 172.843088,17.8921637 171.99975,18.4825 C171.156412,19.0728363 170.121423,19.368 168.89475,19.368 Z M171.93075,12.008 C171.88475,11.3639968 171.589586,10.7506696 171.04525,10.168 C170.500914,9.58533042 169.692089,9.294 168.61875,9.294 C167.836746,9.294 167.158253,9.53933088 166.58325,10.03 C166.008247,10.5206691 165.613418,11.1799959 165.39875,12.008 L171.93075,12.008 Z M182.1255,19.368 C181.266829,19.368 180.496337,19.1840018 179.814,18.816 C179.131663,18.4479982 178.621835,17.9880028 178.2845,17.436 L178.1925,17.436 L178.2845,19 L178.2845,23.968 L176.1685,23.968 L176.1685,7.73 L178.1925,7.73 L178.1925,9.294 L178.2845,9.294 C178.621835,8.74199724 179.131663,8.28200184 179.814,7.914 C180.496337,7.54599816 181.266829,7.362 182.1255,7.362 C183.582174,7.362 184.839495,7.93699425 185.8975,9.087 C186.955505,10.2370057 187.4845,11.6629915 187.4845,13.365 C187.4845,15.0670085 186.955505,16.4929943 185.8975,17.643 C184.839495,18.7930058 183.582174,19.368 182.1255,19.368 Z M181.7805,17.436 C182.761838,17.436 183.605163,17.0641704 184.3105,16.3205 C185.015837,15.5768296 185.3685,14.5916728 185.3685,13.365 C185.3685,12.1383272 185.015837,11.1531704 184.3105,10.4095 C183.605163,9.66582961 182.761838,9.294 181.7805,9.294 C180.783828,9.294 179.93667,9.66199632 179.239,10.398 C178.54133,11.1340037 178.1925,12.1229938 178.1925,13.365 C178.1925,14.6070062 178.54133,15.5959963 179.239,16.332 C179.93667,17.0680037 180.783828,17.436 181.7805,17.436 Z M194.66625,19.368 C192.964241,19.368 191.580422,18.8006723 190.51475,17.666 C189.449078,16.5313277 188.91625,15.0976753 188.91625,13.365 C188.91625,11.7243251 189.433745,10.3136726 190.46875,9.133 C191.503755,7.95232743 192.826242,7.362 194.43625,7.362 C196.107592,7.362 197.445412,7.90632789 198.44975,8.995 C199.454088,10.0836721 199.95625,11.5403242 199.95625,13.365 L199.93325,13.756 L191.03225,13.756 C191.093584,14.8906723 191.47308,15.7876634 192.17075,16.447 C192.86842,17.1063366 193.684912,17.436 194.62025,17.436 C196.138258,17.436 197.165581,16.7920064 197.70225,15.504 L199.58825,16.286 C199.220248,17.1600044 198.614588,17.8921637 197.77125,18.4825 C196.927912,19.0728363 195.892923,19.368 194.66625,19.368 Z M197.70225,12.008 C197.65625,11.3639968 197.361086,10.7506696 196.81675,10.168 C196.272414,9.58533042 195.463589,9.294 194.39025,9.294 C193.608246,9.294 192.929753,9.53933088 192.35475,10.03 C191.779747,10.5206691 191.384918,11.1799959 191.17025,12.008 L197.70225,12.008 Z M209.231,13.089 L209.208,13.089 C210.526673,13.6410028 211.186,14.4843277 211.186,15.619 C211.186,16.6616719 210.733671,17.4858303 209.829,18.0915 C208.924329,18.6971697 207.743674,19 206.287,19 C205.412996,19 204.539004,18.831335 203.665,18.494 C202.790996,18.156665 202.047336,17.6813364 201.434,17.068 L202.837,15.711 C203.787671,16.6156712 204.93766,17.068 206.287,17.068 C207.130338,17.068 207.797331,16.9223348 208.288,16.631 C208.778669,16.3396652 209.024,15.9640023 209.024,15.504 C209.024,15.0593311 208.855335,14.6875015 208.518,14.3885 C208.180665,14.0894985 207.705336,13.94 207.092,13.94 L204.7,13.94 L204.7,12.238 L207.023,12.238 C207.483002,12.238 207.870165,12.1038347 208.1845,11.8355 C208.498835,11.5671653 208.656,11.2106689 208.656,10.766 C208.656,10.3213311 208.452835,9.96483467 208.0465,9.6965 C207.640165,9.42816533 207.084337,9.294 206.379,9.294 C205.136994,9.294 204.079004,9.70032927 203.205,10.513 L201.848,9.202 C203.074673,7.9753272 204.584991,7.362 206.379,7.362 C207.559673,7.362 208.586996,7.6686636 209.461,8.282 C210.335004,8.8953364 210.772,9.68499517 210.772,10.651 C210.772,11.8163392 210.258338,12.6289977 209.231,13.089 Z" id="Подпишитесь-через" fill="#FFFFFF"></path>
        <g id="Group" transform="translate(218.000000, 0.000000)" fill="#FFFFFF" fill-rule="nonzero">
            <path d="M9.36714443,19 C4.27673649,19 0,14.7346939 0,9.5 C0,4.26530612 4.27673649,0 9.36714443,0 C12.185226,0 14.1896362,1.13265306 15.6979052,2.62244898 L13.92172,4.44897959 C12.8401323,3.40816327 11.3715546,2.59183673 9.36714443,2.59183673 C5.646086,2.59183673 2.73869901,5.67346939 2.73869901,9.5 C2.73869901,13.3265306 5.646086,16.4081633 9.36714443,16.4081633 C11.7783903,16.4081633 13.1477398,15.4081633 14.030871,14.5102041 C14.755237,13.7653061 15.2216097,12.7040816 15.4002205,11.244898 L9.36714443,11.244898 L9.36714443,8.64285714 L17.8610805,8.64285714 C17.9503859,9.10204082 18,9.66326531 18,10.2653061 C18,12.2142857 17.4840132,14.622449 15.8169791,16.3367347 C14.1896362,18.0714286 12.1256891,19 9.36714443,19 Z" id="Shape"></path>
            <path d="M32,13 C32,16.4557596 29.3096447,19 26,19 C22.6903553,19 20,16.4557596 20,13 C20,9.52420701 22.6903553,7 26,7 C29.3096447,7 32,9.52420701 32,13 Z M29.3705584,13 C29.3705584,10.836394 27.8071066,9.3639399 26,9.3639399 C24.1928934,9.3639399 22.6294416,10.8464107 22.6294416,13 C22.6294416,15.1335559 24.1928934,16.6360601 26,16.6360601 C27.8071066,16.6360601 29.3705584,15.1435726 29.3705584,13 Z" id="Shape"></path>
            <path d="M45,13 C45,16.4557596 42.3096447,19 39,19 C35.7005076,19 33,16.4557596 33,13 C33,9.52420701 35.6903553,7 39,7 C42.3096447,7 45,9.52420701 45,13 Z M42.3807107,13 C42.3807107,10.836394 40.8172589,9.3639399 39.0101523,9.3639399 C37.2030457,9.3639399 35.6395939,10.8464107 35.6395939,13 C35.6395939,15.1335559 37.2030457,16.6360601 39.0101523,16.6360601 C40.8172589,16.6460768 42.3807107,15.1435726 42.3807107,13 Z" id="Shape"></path>
            <path d="M57,7.3621186 L57,17.8929188 C57,22.228555 54.5013055,24 51.5430809,24 C48.7571802,24 47.0913838,22.0915371 46.45953,20.5354059 L48.6518712,19.6056419 C49.0443864,20.5647668 50.0017406,21.6902706 51.5430809,21.6902706 C53.4386423,21.6902706 54.6066144,20.4864709 54.6066144,18.2452504 L54.6066144,17.4035694 L54.5204526,17.4035694 C53.9556136,18.1180196 52.8642298,18.7345999 51.4952132,18.7345999 C48.6231506,18.7345999 46,16.1801957 46,12.8917674 C46,9.58376511 48.6327241,7 51.4952132,7 C52.8642298,7 53.9556136,7.6263673 54.5204526,8.31145653 L54.6066144,8.31145653 L54.6066144,7.3621186 L57,7.3621186 Z M54.7789382,12.9015544 C54.7789382,10.8364997 53.4290688,9.31951641 51.7154047,9.31951641 C49.97302,9.31951641 48.5178416,10.8267127 48.5178416,12.9015544 C48.5178416,14.9470351 49.97302,16.4346575 51.7154047,16.4346575 C53.4290688,16.4346575 54.7789382,14.9470351 54.7789382,12.9015544 Z" id="Shape"></path>
            <polygon id="Shape" points="63 1 63 19 60 19 60 1"></polygon>
            <path d="M72.8441203,14.9732888 L74.8896992,16.3355593 C74.2278943,17.3171953 72.633546,19 69.8760255,19 C66.4567001,19 64,16.3656093 64,13 C64,9.43405676 66.4867821,7 69.5852325,7 C72.7037375,7 74.2278943,9.47412354 74.7292616,10.8163606 L75,11.4974958 L66.9680948,14.8230384 C67.579763,16.0250417 68.5423883,16.6460768 69.8860529,16.6460768 C71.2297174,16.6460768 72.1622607,15.9749583 72.8441203,14.9732888 Z M66.5369189,12.8096828 L71.911577,10.5859766 C71.6107566,9.83472454 70.72835,9.31385643 69.6754786,9.31385643 C68.331814,9.31385643 66.4667274,10.4958264 66.5369189,12.8096828 Z" id="Shape"></path>
        </g>
    </g>
</svg>

<svg width="293" height="24" viewBox="0 0 293 24" xmlns="http://www.w3.org/2000/svg"><title>SwG-RU-Black</title><desc>Created with Sketch.</desc><g fill="none"><path d="M1.656 19v-16.468h11.914v16.468h-2.116v-14.444h-7.682v14.444h-2.116zm15.991-9.913c1.089-1.15 2.476-1.725 4.163-1.725 1.687 0 3.074.571 4.163 1.713 1.089 1.142 1.633 2.572 1.633 4.29 0 1.717-.544 3.147-1.633 4.289s-2.476 1.713-4.163 1.713c-1.687 0-3.074-.571-4.163-1.713-1.089-1.142-1.633-2.572-1.633-4.289 0-1.717.544-3.143 1.633-4.278zm1.564 7.245c.736.736 1.602 1.104 2.599 1.104.997 0 1.859-.372 2.587-1.116.728-.744 1.093-1.729 1.093-2.955 0-1.227-.364-2.212-1.093-2.956-.728-.744-1.591-1.115-2.587-1.115-.997 0-1.859.372-2.588 1.115-.728.744-1.092 1.729-1.092 2.956 0 1.227.36 2.216 1.081 2.967zm11.391 6.164h-2.024v-5.428h1.357c.337-.291.617-.855.84-1.691.222-.836.334-1.813.334-2.932v-4.715h9.982v9.338h1.84v5.428h-2.024v-3.496h-10.304v3.496zm2.622-12.834v2.944c0 1.794-.307 3.281-.92 4.462h6.67v-7.406h-5.75zm11.782 9.338v-11.27h9.982v11.27h-2.116v-9.338h-5.75v9.338h-2.116zm22.684-11.27v11.27h-2.116v-5.842l.092-2.208h-.092l-5.75 8.05h-2.116v-11.27h2.116v5.842l-.092 2.208h.092l5.75-8.05h2.116zm17.992 11.27h-15.272v-11.27h2.116v9.338h4.462v-9.338h2.116v9.338h4.462v-9.338h2.116v11.27zm12.702-11.27v11.27h-2.116v-5.842l.092-2.208h-.092l-5.75 8.05h-2.116v-11.27h2.116v5.842l-.092 2.208h.092l5.75-8.05h2.116zm1.984 1.932v-1.932h8.74v1.932h-3.312v9.338h-2.116v-9.338h-3.312zm15.6 9.706c-1.702 0-3.086-.567-4.151-1.702-1.066-1.135-1.599-2.568-1.599-4.301 0-1.641.517-3.051 1.553-4.232 1.035-1.181 2.357-1.771 3.968-1.771 1.671 0 3.009.544 4.013 1.633s1.507 2.545 1.507 4.37l-.023.391h-8.901c.061 1.135.441 2.032 1.139 2.691.698.659 1.514.989 2.45.989 1.518 0 2.545-.644 3.082-1.932l1.886.782c-.368.874-.974 1.606-1.817 2.197-.843.59-1.878.885-3.105.885zm3.036-7.36c-.046-.644-.341-1.257-.885-1.84-.544-.583-1.353-.874-2.427-.874-.782 0-1.46.245-2.035.736-.575.491-.97 1.15-1.184 1.978h6.532zm9.597 7.36c-1.687 0-3.074-.571-4.163-1.713-1.089-1.142-1.633-2.572-1.633-4.289 0-1.717.544-3.147 1.633-4.29 1.089-1.142 2.476-1.713 4.163-1.713 1.257 0 2.3.307 3.128.92.828.613 1.434 1.388 1.817 2.323l-1.932.805c-.583-1.411-1.633-2.116-3.151-2.116-.935 0-1.759.383-2.472 1.15-.713.767-1.069 1.74-1.069 2.921 0 1.181.356 2.154 1.069 2.921.713.767 1.537 1.15 2.472 1.15 1.579 0 2.668-.705 3.266-2.116l1.886.805c-.383.92-1 1.69-1.852 2.311-.851.621-1.905.931-3.162.931zm12.587-.368h-5.589v-11.27h2.116v4.002h3.473c.383 0 .774.061 1.173.184.399.107.79.299 1.173.575.107.061.222.153.345.276l.207.184c.322.322.583.728.782 1.219.061.169.1.314.115.437l.023.138c.046.199.069.406.069.621v.161l-.069.46-.023.138-.012.081-.011.081-.092.276c-.123.337-.314.675-.575 1.012l-.207.207c-.184.215-.445.429-.782.644l-.391.207-.138.046c-.092.046-.23.1-.414.161l-.276.069-.081.011-.081.012-.299.046c-.092.015-.238.023-.437.023zm-.069-1.932l.345-.023.253-.069.253-.115.276-.184.069-.046c.138-.123.276-.291.414-.506v-.023l.023-.046.069-.184.092-.437v-.138l-.023-.138c0-.077-.031-.192-.092-.345-.092-.245-.238-.468-.437-.667l-.276-.184-.092-.057-.092-.057-.115-.046-.138-.046c-.138-.061-.314-.092-.529-.092h-3.404v3.404h3.404zm15.306-3.818c1.211 0 2.093-.276 2.645-.828v-4.692h2.116v11.27h-2.116v-3.818l.046-.92h-.046c-.828.613-1.848.92-3.059.92-1.273 0-2.308-.395-3.105-1.184-.797-.79-1.196-1.79-1.196-3.002v-3.266h2.162v3.266c0 .69.23 1.238.69 1.644.46.406 1.081.61 1.863.61zm12.472 6.118c-1.702 0-3.086-.567-4.151-1.702-1.066-1.135-1.599-2.568-1.599-4.301 0-1.641.517-3.051 1.553-4.232 1.035-1.181 2.357-1.771 3.968-1.771 1.671 0 3.009.544 4.013 1.633s1.507 2.545 1.507 4.37l-.023.391h-8.901c.061 1.135.441 2.032 1.138 2.691.698.659 1.514.989 2.45.989 1.518 0 2.545-.644 3.082-1.932l1.886.782c-.368.874-.974 1.606-1.817 2.197-.843.59-1.878.885-3.105.885zm3.036-7.36c-.046-.644-.341-1.257-.885-1.84-.544-.583-1.353-.874-2.427-.874-.782 0-1.46.245-2.036.736-.575.491-.97 1.15-1.184 1.978h6.532zm10.195 7.36c-.859 0-1.629-.184-2.311-.552-.682-.368-1.192-.828-1.529-1.38h-.092l.092 1.564v4.968h-2.116v-16.238h2.024v1.564h.092c.337-.552.847-1.012 1.529-1.38.682-.368 1.453-.552 2.311-.552 1.457 0 2.714.575 3.772 1.725 1.058 1.15 1.587 2.576 1.587 4.278 0 1.702-.529 3.128-1.587 4.278-1.058 1.15-2.315 1.725-3.772 1.725zm-.345-1.932c.981 0 1.825-.372 2.53-1.116.705-.744 1.058-1.729 1.058-2.955 0-1.227-.353-2.212-1.058-2.956-.705-.744-1.549-1.115-2.53-1.115-.997 0-1.844.368-2.541 1.104-.698.736-1.047 1.725-1.047 2.967s.349 2.231 1.047 2.967c.698.736 1.545 1.104 2.541 1.104zm12.886 1.932c-1.702 0-3.086-.567-4.151-1.702-1.066-1.135-1.599-2.568-1.599-4.301 0-1.641.517-3.051 1.553-4.232 1.035-1.181 2.357-1.771 3.968-1.771 1.671 0 3.009.544 4.013 1.633s1.507 2.545 1.507 4.37l-.023.391h-8.901c.061 1.135.441 2.032 1.138 2.691.698.659 1.514.989 2.45.989 1.518 0 2.545-.644 3.082-1.932l1.886.782c-.368.874-.974 1.606-1.817 2.197-.843.59-1.878.885-3.105.885zm3.036-7.36c-.046-.644-.341-1.257-.885-1.84-.544-.583-1.353-.874-2.427-.874-.782 0-1.46.245-2.036.736-.575.491-.97 1.15-1.184 1.978h6.532zm11.529 1.081h-.023c1.319.552 1.978 1.395 1.978 2.53 0 1.043-.452 1.867-1.357 2.473-.905.606-2.085.909-3.542.909-.874 0-1.748-.169-2.622-.506-.874-.337-1.618-.813-2.231-1.426l1.403-1.357c.951.905 2.101 1.357 3.45 1.357.843 0 1.51-.146 2.001-.437.491-.291.736-.667.736-1.127 0-.445-.169-.816-.506-1.115-.337-.299-.813-.449-1.426-.449h-2.392v-1.702h2.323c.46 0 .847-.134 1.162-.402.314-.268.471-.625.471-1.069 0-.445-.203-.801-.609-1.069-.406-.268-.962-.402-1.668-.402-1.242 0-2.3.406-3.174 1.219l-1.357-1.311c1.227-1.227 2.737-1.84 4.531-1.84 1.181 0 2.208.307 3.082.92.874.613 1.311 1.403 1.311 2.369 0 1.165-.514 1.978-1.541 2.438z" fill="#fff"/><g fill-rule="nonzero"><path d="M227.367 19c-5.09 0-9.367-4.265-9.367-9.5s4.277-9.5 9.367-9.5c2.818 0 4.822 1.133 6.331 2.622l-1.776 1.827c-1.082-1.041-2.55-1.857-4.555-1.857-3.721 0-6.628 3.082-6.628 6.908 0 3.827 2.907 6.908 6.628 6.908 2.411 0 3.781-1 4.664-1.898.724-.745 1.191-1.806 1.369-3.265h-6.033v-2.602h8.494c.089.459.139 1.02.139 1.622 0 1.949-.516 4.357-2.183 6.071-1.627 1.735-3.691 2.663-6.45 2.663z" id="Shape" fill="#4285F4"/><path d="M250 13c0 3.456-2.69 6-6 6s-6-2.544-6-6c0-3.476 2.69-6 6-6s6 2.524 6 6zm-2.629 0c0-2.164-1.563-3.636-3.371-3.636-1.807 0-3.371 1.482-3.371 3.636 0 2.134 1.563 3.636 3.371 3.636 1.807 0 3.371-1.492 3.371-3.636z" id="Shape" fill="#E94235"/><path d="M263 13c0 3.456-2.69 6-6 6-3.299 0-6-2.544-6-6 0-3.476 2.69-6 6-6s6 2.524 6 6zm-2.619 0c0-2.164-1.563-3.636-3.371-3.636-1.807 0-3.371 1.482-3.371 3.636 0 2.134 1.563 3.636 3.371 3.636 1.807.01 3.371-1.492 3.371-3.636z" id="Shape" fill="#FABB05"/><path d="M275 7.362v10.531c0 4.336-2.499 6.107-5.457 6.107-2.786 0-4.452-1.908-5.084-3.465l2.192-.93c.393.959 1.35 2.085 2.891 2.085 1.896 0 3.064-1.204 3.064-3.445v-.842h-.086c-.565.714-1.656 1.331-3.025 1.331-2.872 0-5.495-2.554-5.495-5.843 0-3.308 2.633-5.892 5.495-5.892 1.369 0 2.46.626 3.025 1.311h.086v-.949h2.393zm-2.221 5.539c0-2.065-1.35-3.582-3.064-3.582-1.742 0-3.198 1.507-3.198 3.582 0 2.045 1.455 3.533 3.198 3.533 1.714 0 3.064-1.488 3.064-3.533z" id="Shape" fill="#4285F4"/><path id="Shape" fill="#34A853" d="M281 1v18h-3v-18z"/><path d="M290.844 14.973l2.046 1.362c-.662.982-2.256 2.664-5.014 2.664-3.419 0-5.876-2.634-5.876-6 0-3.566 2.487-6 5.585-6 3.119 0 4.643 2.474 5.144 3.816l.271.681-8.032 3.326c.612 1.202 1.574 1.823 2.918 1.823s2.276-.671 2.958-1.673zm-6.307-2.164l5.375-2.224c-.301-.751-1.183-1.272-2.236-1.272-1.344 0-3.209 1.182-3.139 3.496z" fill="#E94235"/></g></g></svg>
